src/assets/Logo.svg

<svg width="53" height="54" viewBox="0 0 53 54" fill="none" xmlns="http://www.w3.org/2000/svg">
<path fill-rule="evenodd" clip-rule="evenodd" d="M53 35.0359H41.5462L39.7294 23.556L33.0512 34.951H31.7837C31.0227 33.6327 30.727 31.7193 30.727 30.5291C30.727 28.5734 30.8535 26.6598 30.8535 24.1508C30.8535 20.8348 29.8816 19.0913 27.3029 18.4536V18.3686C32.7557 17.6031 35.2488 13.946 35.2488 8.84359C35.2488 1.57346 30.4307 0 24.1331 0H7.18584L0 34.1854H9.00243L11.6229 21.7277H17.6249C20.8371 21.7277 22.1473 23.3009 22.1473 26.3194C22.1473 28.6155 21.8937 30.444 21.8937 32.1874C21.8937 32.8251 22.0202 34.3554 22.4849 34.951L28.9939 41.8818L23.3729 54L35.3759 46.814L44.3356 53.7448L42.6871 42.3072L53 35.0359ZM20.33 15.3493H13.145L14.8771 7.101H21.5556C23.9221 7.101 26.4156 7.73869 26.4156 10.63C26.4156 14.3294 23.584 15.3493 20.33 15.3493ZM35.5451 44.8153L27.1765 49.8325L31.0227 41.5837L26.3735 36.6515H34.0232L38.8414 28.4453L40.1514 36.7364H47.759L40.9124 41.5416L42.138 49.9606L35.5451 44.8153Z" fill="white"/>
</svg>

<svg xmlns="http://www.w3.org/2000/svg" width="53" height="54" fill="none" viewBox="0 0 53 54"><path fill="#fff" fill-rule="evenodd" d="M53 35.036H41.546l-1.817-11.48-6.678 11.395h-1.267c-.761-1.318-1.057-3.232-1.057-4.422 0-1.956.127-3.87.127-6.378 0-3.316-.972-5.06-3.551-5.697v-.085c5.453-.766 7.946-4.423 7.946-9.525C35.249 1.574 30.43 0 24.133 0H7.186L0 34.185h9.002l2.62-12.457h6.003c3.212 0 4.522 1.573 4.522 4.591 0 2.297-.253 4.125-.253 5.868 0 .638.126 2.168.59 2.764l6.51 6.93L23.373 54l12.003-7.186 8.96 6.93-1.649-11.437zM20.33 15.349h-7.185l1.732-8.248h6.679c2.366 0 4.86.638 4.86 3.529 0 3.7-2.832 4.72-6.086 4.72m15.215 29.466-8.369 5.018 3.847-8.25-4.65-4.931h7.65l4.818-8.207 1.31 8.291h7.608l-6.847 4.806 1.226 8.419z" clip-rule="evenodd"/></svg>
